X:1
T:Title
%%score { ( 1 4 ) | ( 2 3 ) }
L:1/8
M:6/8
K:G
V:1 treble nm="Grand Piano"
V:4 treble 
V:2 bass 
V:3 bass 
V:1
 z3 z2[Q:1/4=84] D/D/ | D2 [DB] [DB][CA][DB] | [B,G]2 [B,G] [B,G]2 D/D/ | D2 c cBc | %4
[M:5/8] [FA]2 [FA] [FA]2 |[M:1/8] D/D/ |[M:3/4] D2 B[GB] [Fc][=Fd] | [Ed]2 [Ec] [Ec]2 [EA] | %8
 [DG]2 [GB] [GB]2 [FA] |[M:5/8] G-G- G3 |[M:1/8] B/[Ac]/ |[M:3/4] [Bd]2 [Bd][Bd] [Ac][GB] | %12
 [FA]2 [GB] [Fc]2 [FA]/[GB]/ | [Ac]2 [ce][ce] [Bd][DAc] | [DGB]2 [DFc] [DGd]3 | [DGB]3 [B,DG]3 | %16
 [CEA]2 [E^GB] [EAc]2 [=Ge] | [Gd]2 [GB] [GB]2 [FA] |[M:5/8] [B,DG]-[B,DG]- [B,DG]3 |] %19
V:2
 z3 z2 [G,B,]/[G,B,]/ | [G,B,]2 [G,,G,] [G,,G,]2 [G,,G,] | %2
 [G,,D,]2 [G,,D,] [G,,D,]2 [G,B,]/[G,B,]/ | z3 .A,3 |[M:5/8] [D,D]2 [D,D] [D,D]2 | %5
[M:1/8] [F,C]/[F,C]/ |[M:3/4] [G,B,]2 [G,DG]G,, A,,[B,,G,] | [C,G,]2 [C,G,] [C,G,]2 [C,C] | %8
 [D,B,]2 [D,D] [D,D]2 [D,C] |[M:5/8] [G,B,]-[G,B,]- [G,B,]3 |[M:1/8][K:treble] [G,DG]/[G,D]/ | %11
[M:3/4] [G,D]2 [G,D] [G,D]2[K:bass] [G,D] | [D,D]2 [D,D] [D,A,]2 [D,D]/[D,D]/ | z2 z .D3 | %14
 G,2 A, B,3 | G,3 G,3 | C,2 B,, A,,2 [C,C] | [D,B,]2 [D,D] [D,D]2 [D,C] | %18
[M:5/8] [G,,G,]-[G,,G,]- [G,,G,]3 |] %19
V:3
 x6 | x6 | x6 | [F,A,]2 [F,A,D] [D,D]-[D,^G,D][D,A,D] |[M:5/8] x5 |[M:1/8] x |[M:3/4] x6 | x6 | %8
 x6 |[M:5/8] x5 |[M:1/8][K:treble] x |[M:3/4] x5[K:bass] x | x6 | [D,D]2 [D,D]D, E,F, | x6 | x6 | %16
 x6 | x6 |[M:5/8] x5 |] %19
V:4
 x6 | x6 | x6 | x6 |[M:5/8] x5 |[M:1/8] x |[M:3/4] z2 z .D3 | x6 | x6 |[M:5/8] x5 |[M:1/8] x | %11
[M:3/4] x6 | x6 | x6 | x6 | x6 | x6 | x6 |[M:5/8] x5 |] %19

